teeny/solid/chat.svg

<svg width="15" height="15" viewBox="0 0 15 15" fill="none" xmlns="http://www.w3.org/2000/svg">
<path d="M7.5 0C3.35816 0 0 3.35556 0 7.49548C0 11.6354 3.35817 14.9908 7.5 14.9908C8.80596 14.9908 10.4098 14.6629 11.5542 14.0445L14.3432 14.9656C14.5229 15.025 14.7206 14.9778 14.8542 14.8437C14.9878 14.7097 15.0342 14.5118 14.9742 14.3323L14.0476 11.5609C14.7205 10.3884 15 8.85469 15 7.49548C15 3.35556 11.6418 0 7.5 0Z" fill="black"/>
</svg>

<svg viewBox="0 0 15 15" xmlns="http://www.w3.org/2000/svg"><path d="M7.5 0C3.35 0 0 3.35 0 7.49c0 4.13 3.35 7.49 7.5 7.49 1.3 0 2.9-.33 4.05-.95l2.78.92c.17.05.37.01.51-.13 .13-.14.18-.34.12-.52l-.93-2.78c.67-1.18.95-2.71.95-4.07 0-4.14-3.36-7.5-7.5-7.5Z"/></svg>
